flaticon/music/banjo.svg

<svg xmlns="http://www.w3.org/2000/svg" width="32" height="32" viewBox="0 0 24 24">
    <path d="M 9.613281 16.054688 C 9.457031 15.898438 9.203125 15.898438 9.046875 16.054688 L 5.835938 19.265625 L 5.554688 18.984375 L 9.117188 15.421875 C 9.273438 15.265625 9.273438 15.011719 9.117188 14.855469 C 8.960938 14.699219 8.707031 14.699219 8.550781 14.855469 L 4.988281 18.417969 L 4.707031 18.132812 L 7.914062 14.925781 C 8.070312 14.765625 8.070312 14.515625 7.914062 14.359375 C 7.757812 14.203125 7.507812 14.203125 7.351562 14.359375 L 4.140625 17.566406 L 3.855469 17.285156 C 3.699219 17.128906 3.445312 17.128906 3.289062 17.285156 C 3.132812 17.441406 3.132812 17.695312 3.289062 17.851562 L 3.574219 18.132812 L 3.289062 18.417969 C 3.132812 18.574219 3.132812 18.828125 3.289062 18.984375 C 3.367188 19.0625 3.472656 19.101562 3.574219 19.101562 C 3.675781 19.101562 3.777344 19.0625 3.855469 18.984375 L 4.140625 18.699219 L 4.421875 18.984375 L 4.140625 19.265625 C 3.984375 19.421875 3.984375 19.675781 4.140625 19.832031 C 4.21875 19.910156 4.320312 19.949219 4.421875 19.949219 C 4.523438 19.949219 4.628906 19.910156 4.707031 19.832031 L 4.988281 19.550781 L 5.273438 19.832031 L 4.988281 20.117188 C 4.832031 20.273438 4.832031 20.523438 4.988281 20.679688 C 5.066406 20.757812 5.167969 20.796875 5.273438 20.796875 C 5.375 20.796875 5.476562 20.757812 5.554688 20.679688 L 5.835938 20.398438 L 6.121094 20.679688 C 6.199219 20.757812 6.300781 20.796875 6.402344 20.796875 C 6.507812 20.796875 6.609375 20.757812 6.6875 20.679688 C 6.84375 20.523438 6.84375 20.273438 6.6875 20.117188 L 6.402344 19.832031 L 9.613281 16.621094 C 9.769531 16.464844 9.769531 16.210938 9.613281 16.054688 Z M 9.613281 16.054688"/>
    <path d="M 7.433594 13.136719 C 5.558594 13.136719 4.03125 14.664062 4.03125 16.539062 L 4.832031 16.539062 C 4.832031 15.105469 6 13.9375 7.433594 13.9375 C 8.867188 13.9375 10.035156 15.105469 10.035156 16.539062 C 10.035156 17.972656 8.867188 19.140625 7.433594 19.140625 L 7.433594 19.941406 C 9.308594 19.941406 10.835938 18.414062 10.835938 16.539062 C 10.835938 14.664062 9.308594 13.136719 7.433594 13.136719 Z M 7.433594 13.136719"/>
    <path d="M 23.539062 4.40625 C 24.21875 3.488281 24.148438 2.1875 23.316406 1.355469 L 22.675781 0.714844 C 22.234375 0.273438 21.644531 0.0273438 21.015625 0.0273438 C 20.507812 0.0273438 20.023438 0.191406 19.621094 0.492188 L 19.320312 0.1875 C 19.164062 0.03125 18.910156 0.03125 18.753906 0.1875 C 18.597656 0.34375 18.597656 0.597656 18.753906 0.753906 L 19.035156 1.035156 L 18.46875 1.601562 L 18.1875 1.320312 C 18.03125 1.164062 17.777344 1.164062 17.621094 1.320312 C 17.464844 1.476562 17.464844 1.726562 17.621094 1.882812 L 17.902344 2.167969 L 17.886719 2.1875 C 17.496094 2.578125 17.496094 3.210938 17.886719 3.601562 C 17.9375 3.652344 17.945312 3.710938 17.945312 3.742188 C 17.945312 3.773438 17.9375 3.832031 17.886719 3.882812 L 10.488281 11.28125 C 9.636719 10.769531 8.65625 10.449219 7.605469 10.382812 L 7.605469 9.964844 C 7.605469 9.742188 7.425781 9.5625 7.203125 9.5625 C 6.984375 9.5625 6.804688 9.742188 6.804688 9.964844 L 6.804688 10.382812 C 5.339844 10.476562 4.011719 11.058594 2.972656 11.972656 L 2.675781 11.675781 C 2.519531 11.519531 2.265625 11.519531 2.109375 11.675781 C 1.953125 11.832031 1.953125 12.082031 2.109375 12.238281 L 2.410156 12.539062 C 1.496094 13.574219 0.910156 14.902344 0.820312 16.367188 L 0.398438 16.367188 C 0.179688 16.367188 0 16.546875 0 16.769531 C 0 16.988281 0.179688 17.167969 0.398438 17.167969 L 0.820312 17.167969 C 0.914062 18.632812 1.496094 19.960938 2.410156 20.996094 L 2.109375 21.296875 C 1.953125 21.453125 1.953125 21.707031 2.109375 21.863281 C 2.1875 21.941406 2.289062 21.980469 2.394531 21.980469 C 2.496094 21.980469 2.597656 21.941406 2.675781 21.863281 L 2.972656 21.5625 C 4.011719 22.476562 5.339844 23.058594 6.804688 23.152344 L 6.804688 23.570312 C 6.804688 23.792969 6.984375 23.972656 7.203125 23.972656 C 7.425781 23.972656 7.605469 23.792969 7.605469 23.570312 L 7.605469 23.152344 C 9.066406 23.058594 10.398438 22.476562 11.433594 21.5625 L 11.730469 21.863281 C 11.808594 21.941406 11.914062 21.980469 12.015625 21.980469 C 12.117188 21.980469 12.21875 21.941406 12.296875 21.863281 C 12.453125 21.707031 12.453125 21.453125 12.296875 21.296875 L 12 20.996094 C 12.914062 19.960938 13.496094 18.632812 13.585938 17.167969 L 14.007812 17.167969 C 14.230469 17.167969 14.40625 16.988281 14.40625 16.769531 C 14.40625 16.546875 14.230469 16.367188 14.007812 16.367188 L 13.585938 16.367188 C 13.523438 15.347656 13.222656 14.394531 12.738281 13.558594 L 20.148438 6.148438 C 20.199219 6.097656 20.261719 6.089844 20.292969 6.089844 C 20.320312 6.089844 20.382812 6.097656 20.433594 6.148438 C 20.808594 6.527344 21.46875 6.527344 21.847656 6.148438 L 21.867188 6.128906 L 22.148438 6.414062 C 22.226562 6.492188 22.328125 6.53125 22.433594 6.53125 C 22.535156 6.53125 22.636719 6.492188 22.714844 6.414062 C 22.871094 6.257812 22.871094 6.003906 22.714844 5.847656 L 22.433594 5.5625 L 23 4.996094 L 23.28125 5.28125 C 23.359375 5.359375 23.460938 5.398438 23.5625 5.398438 C 23.667969 5.398438 23.769531 5.359375 23.847656 5.28125 C 24.003906 5.125 24.003906 4.871094 23.847656 4.714844 Z M 7.203125 22.371094 C 4.113281 22.371094 1.601562 19.859375 1.601562 16.769531 C 1.601562 13.679688 4.113281 11.164062 7.203125 11.164062 C 8.707031 11.164062 10.070312 11.761719 11.078125 12.730469 C 11.109375 12.757812 11.140625 12.785156 11.171875 12.8125 C 11.230469 12.871094 11.28125 12.9375 11.335938 13 C 11.410156 13.078125 11.484375 13.15625 11.550781 13.238281 C 11.582031 13.277344 11.609375 13.316406 11.636719 13.355469 C 11.722656 13.46875 11.808594 13.578125 11.886719 13.695312 C 12.464844 14.578125 12.808594 15.632812 12.808594 16.769531 C 12.808594 19.859375 10.292969 22.371094 7.203125 22.371094 Z M 21.140625 5.640625 C 21.109375 5.640625 21.050781 5.632812 21 5.582031 C 20.609375 5.191406 19.972656 5.191406 19.582031 5.582031 L 12.285156 12.878906 C 12.269531 12.855469 12.25 12.835938 12.230469 12.8125 C 12.160156 12.722656 12.082031 12.632812 12.007812 12.546875 L 20.953125 3.566406 C 21.109375 3.410156 21.105469 3.15625 20.949219 3 C 20.792969 2.84375 20.539062 2.847656 20.382812 3.003906 L 11.441406 11.980469 C 11.371094 11.917969 11.300781 11.851562 11.226562 11.792969 C 11.207031 11.773438 11.1875 11.753906 11.164062 11.738281 L 18.449219 4.449219 C 18.640625 4.261719 18.746094 4.011719 18.746094 3.742188 C 18.746094 3.476562 18.640625 3.222656 18.453125 3.035156 C 18.375 2.957031 18.375 2.828125 18.453125 2.753906 L 18.753906 2.449219 L 19.921875 1.28125 C 20.527344 0.675781 21.507812 0.675781 22.113281 1.28125 L 22.75 1.921875 C 23.355469 2.527344 23.355469 3.507812 22.75 4.113281 L 21.28125 5.582031 C 21.230469 5.632812 21.171875 5.640625 21.140625 5.640625 Z M 21.140625 5.640625"/>
</svg>

<svg xmlns="http://www.w3.org/2000/svg" width="32" height="32" viewBox="0 0 24 24">
    <path d="M9.613 16.055a.4.4 0 0 0-.566 0l-3.211 3.21-.281-.28 3.562-3.563a.4.4 0 0 0-.566-.567l-3.563 3.563-.281-.285 3.207-3.207a.4.4 0 0 0 0-.567.396.396 0 0 0-.562 0L4.14 17.566l-.286-.28a.4.4 0 0 0-.566.566l.285.28-.285.286a.4.4 0 0 0 .566.566l.286-.285.28.285-.28.282a.4.4 0 0 0 .566.566l.281-.281.285.281-.285.285a.399.399 0 1 0 .566.563l.282-.282.285.282a.399.399 0 0 0 .566-.563l-.285-.285 3.211-3.21a.4.4 0 0 0 0-.567zm0 0"/>
    <path d="M7.434 13.137a3.408 3.408 0 0 0-3.403 3.402h.801a2.606 2.606 0 0 1 2.602-2.602 2.606 2.606 0 0 1 2.601 2.602 2.606 2.606 0 0 1-2.601 2.602v.8a3.408 3.408 0 0 0 3.402-3.402 3.408 3.408 0 0 0-3.402-3.402zm0 0"/>
    <path d="M23.54 4.406c.679-.918.608-2.218-.224-3.05l-.64-.641A2.334 2.334 0 0 0 19.62.492l-.3-.304a.4.4 0 0 0-.567.566l.281.281-.566.567-.282-.282a.4.4 0 0 0-.566 0 .396.396 0 0 0 0 .563l.281.285-.015.02a1 1 0 0 0 0 1.414.198.198 0 0 1 0 .28l-7.399 7.4a6.364 6.364 0 0 0-2.883-.9v-.417a.401.401 0 0 0-.8 0v.418a6.402 6.402 0 0 0-3.832 1.59l-.297-.297a.4.4 0 0 0-.567 0 .396.396 0 0 0 0 .562l.301.301a6.358 6.358 0 0 0-1.59 3.828H.398a.401.401 0 0 0 0 .801H.82a6.381 6.381 0 0 0 1.59 3.828l-.3.3a.4.4 0 0 0 .566.567l.297-.3a6.402 6.402 0 0 0 3.832 1.59v.417a.401.401 0 1 0 .8 0v-.418a6.39 6.39 0 0 0 3.829-1.59l.296.301a.405.405 0 0 0 .286.117.4.4 0 0 0 .281-.684l-.297-.3a6.354 6.354 0 0 0 1.586-3.828h.422c.222 0 .398-.18.398-.398a.398.398 0 0 0-.398-.403h-.422a6.363 6.363 0 0 0-.848-2.808l7.41-7.41a.204.204 0 0 1 .285 0c.376.378 1.036.378 1.415 0l.02-.02.28.285a.399.399 0 0 0 .567 0 .4.4 0 0 0 0-.566l-.281-.285.566-.567.281.285a.399.399 0 0 0 .566 0 .4.4 0 0 0 0-.566zM7.202 22.371a5.606 5.606 0 0 1-5.601-5.601 5.61 5.61 0 0 1 5.601-5.606c1.504 0 2.867.598 3.875 1.566l.094.082c.058.06.11.126.164.188a2.235 2.235 0 0 1 .3.355c.087.114.173.223.25.34.579.883.923 1.938.923 3.075a5.61 5.61 0 0 1-5.606 5.601zm13.938-16.73A.198.198 0 0 1 21 5.582a1.004 1.004 0 0 0-1.418 0l-7.297 7.297c-.015-.024-.035-.043-.055-.066-.07-.09-.148-.18-.222-.266l8.945-8.98a.4.4 0 0 0-.57-.563L11.44 11.98c-.07-.062-.14-.128-.214-.187-.02-.02-.04-.04-.063-.055L18.45 4.45a.98.98 0 0 0 .297-.707 1 1 0 0 0-.293-.707.198.198 0 0 1 0-.281l.3-.305 1.169-1.168a1.549 1.549 0 0 1 2.191 0l.637.64a1.549 1.549 0 0 1 0 2.192l-1.469 1.469a.198.198 0 0 1-.14.059zm0 0"/>
</svg>
